X:85
T:Lidia's Ramble THO1.085
M:2/4
L:1/8
Z:vmp. Peter Dunk 2012.from a transcription by Fynn Titford-Mock 2006
B:Thompson's Compleat Collection of 200 Favourite Country Dances Vol.I,1758
Q:1/4=140
K:D
d2 (3(Bcd)|B A2 G| FA gf|e2A2|d2 fe/f/|gBAG|FdEc|d2D2:|
|:d2 fd|(3(Bcd) (3(dcB)|(3(gfe) ed|{d}c2 AG|(3(FGA) Dd|(3(cde) Aa|(3(gfe) Ac|d2D2:|

